X:1
T:No.101 Scots Mary (The Fintown Reel & Mary o'the Wisp)
M:4/4
L:1/8
C:reel
K:C
ADDD Addc|ADDE FEFG|
ADDD Addc|[1AGFA G2Gc:|[2AGFA G2gf||
dggf dgdc|=Bcde f2ef|
dggf dgdc|=BGFD G2gf|
dggf dgdc|=Bcde f2 ef|
(3gfe (3fed ecdc|BGFD G2GA||
=Bcdc Bcdc|_BDDD F2GA|=Bcdc Bcdc|
BGFA G2GA|=Bcdc Bcdc|_BDDD F2GA|
[1Bcdg ecdc|BGFA G2GA:|
[2Bcdf ecdc|BGFA G2GB||
